dataset/ugene/icon.svg

<?xml version="1.0" encoding="UTF-8" standalone="no"?>
<svg
   viewBox="0 0 128 128"
   style="display:inline;enable-background:new"
   version="1.0"
   id="svg11300"
   height="128"
   width="128"
   xml:space="preserve"
   xmlns:xlink="http://www.w3.org/1999/xlink"
   xmlns="http://www.w3.org/2000/svg"
   xmlns:svg="http://www.w3.org/2000/svg"
   xmlns:rdf="http://www.w3.org/1999/02/22-rdf-syntax-ns#"
   xmlns:cc="http://creativecommons.org/ns#"
   xmlns:dc="http://purl.org/dc/elements/1.1/"><title
     id="title4162">Adwaita Icon Template</title><defs
     id="defs3"><linearGradient
       id="linearGradient974"><stop
         style="stop-color:#0b3543;stop-opacity:1;"
         offset="0"
         id="stop962" /><stop
         id="stop964"
         offset="0.04166667"
         style="stop-color:#5e8596;stop-opacity:1;" /><stop
         style="stop-color:#0b3543;stop-opacity:1;"
         offset="0.08333334"
         id="stop966" /><stop
         id="stop968"
         offset="0.91666669"
         style="stop-color:#0b3543;stop-opacity:1;" /><stop
         style="stop-color:#5f8496;stop-opacity:1;"
         offset="0.95833331"
         id="stop970" /><stop
         style="stop-color:#0b3543;stop-opacity:1;"
         offset="1"
         id="stop972" /></linearGradient><linearGradient
       y2="44"
       x2="464"
       y1="44"
       x1="48"
       gradientTransform="matrix(0.25,0,0,0.25,0,53)"
       gradientUnits="userSpaceOnUse"
       id="linearGradient1747"
       xlink:href="#linearGradient974" /><linearGradient
       xlink:href="#SVGID_1_"
       id="linearGradient2"
       x1="59.043522"
       y1="17.542473"
       x2="67.878983"
       y2="128"
       gradientUnits="userSpaceOnUse" /><linearGradient
       id="SVGID_1_"
       gradientUnits="userSpaceOnUse"
       x1="187.4727"
       y1="23.267099"
       x2="213.53571"
       y2="479.36929">
		<stop
   offset="0"
   style="stop-color:#4A6876"
   id="stop103" />
		<stop
   offset="0.5393"
   style="stop-color:#0B3543"
   id="stop104" />
		<stop
   offset="1"
   style="stop-color:#000000"
   id="stop105" />
	</linearGradient><radialGradient
       id="SVGID_2_"
       cx="197.543"
       cy="205.88181"
       r="123.4046"
       gradientUnits="userSpaceOnUse"
       gradientTransform="matrix(0.25325849,0,0,0.25325849,13.970558,9.8586356)">
			<stop
   offset="0.0056"
   style="stop-color:#FFFEEE"
   id="stop106" />
			<stop
   offset="0.3507"
   style="stop-color:#EDEDE7"
   id="stop107" />
			<stop
   offset="0.7472"
   style="stop-color:#D6D9DE"
   id="stop108" />
			<stop
   offset="0.8764"
   style="stop-color:#DDD8D4"
   id="stop109" />
		</radialGradient><radialGradient
       xlink:href="#SVGID_2_"
       id="radialGradient5"
       cx="64"
       cy="62"
       fx="64"
       fy="62"
       r="29.25"
       gradientTransform="matrix(1.119298,7.5574127e-8,-5.1282054e-8,1.025641,-7.6350703,-1.5897471)"
       gradientUnits="userSpaceOnUse" /></defs><metadata
     id="metadata4"><rdf:RDF><cc:Work
         rdf:about=""><dc:format>image/svg+xml</dc:format><dc:type
           rdf:resource="http://purl.org/dc/dcmitype/StillImage" /><dc:creator><cc:Agent><dc:title>GNOME Design Team</dc:title></cc:Agent></dc:creator><dc:source /><cc:license
           rdf:resource="http://creativecommons.org/licenses/by-sa/4.0/" /><dc:title>Adwaita Icon Template</dc:title><dc:subject><rdf:Bag /></dc:subject><dc:date /><dc:rights><cc:Agent><dc:title /></cc:Agent></dc:rights><dc:publisher><cc:Agent><dc:title /></cc:Agent></dc:publisher><dc:identifier /><dc:relation /><dc:language /><dc:coverage /><dc:description /><dc:contributor><cc:Agent><dc:title /></cc:Agent></dc:contributor></cc:Work><cc:License
         rdf:about="http://creativecommons.org/licenses/by-sa/4.0/"><cc:permits
           rdf:resource="http://creativecommons.org/ns#Reproduction" /><cc:permits
           rdf:resource="http://creativecommons.org/ns#Distribution" /><cc:requires
           rdf:resource="http://creativecommons.org/ns#Notice" /><cc:requires
           rdf:resource="http://creativecommons.org/ns#Attribution" /><cc:permits
           rdf:resource="http://creativecommons.org/ns#DerivativeWorks" /><cc:requires
           rdf:resource="http://creativecommons.org/ns#ShareAlike" /></cc:License></rdf:RDF></metadata><rect
     ry="8"
     rx="8"
     y="32"
     x="12"
     height="83.999992"
     width="104"
     id="rect1709"
     style="display:inline;fill:url(#linearGradient1747);fill-opacity:1;stroke:none;stroke-width:0.25;stroke-linecap:butt;stroke-linejoin:miter;stroke-miterlimit:4;stroke-dasharray:none;stroke-dashoffset:0;stroke-opacity:1;marker:none;marker-start:none;marker-mid:none;marker-end:none;paint-order:normal;enable-background:new" /><rect
     style="display:inline;fill:url(#linearGradient2);fill-opacity:1;stroke:none;stroke-width:0.25;stroke-linecap:butt;stroke-linejoin:miter;stroke-miterlimit:4;stroke-dasharray:none;stroke-dashoffset:0;stroke-opacity:1;marker:none;marker-start:none;marker-mid:none;marker-end:none;paint-order:normal;enable-background:new"
     id="rect1711"
     width="104"
     height="100"
     x="12"
     y="12"
     rx="8"
     ry="8" /><path
     id="path3"
     style="baseline-shift:baseline;display:inline;overflow:visible;vector-effect:none;enable-background:accumulate;stop-color:#000000;fill:url(#radialGradient5)"
     d="M 34.75 27.9375 L 34.75 55.685547 C 34.75 66.172442 35.377105 73.401749 36.699219 77.494141 C 38.531303 83.311578 41.716546 87.886073 46.234375 91.15625 C 50.768579 94.440095 56.686897 96.0625 63.939453 96.0625 C 70.623838 96.0625 76.180093 94.672155 80.568359 91.863281 C 84.94478 89.06199 88.261975 85.033628 90.501953 79.822266 C 92.36995 75.46116 93.25 67.620884 93.25 56.166016 L 93.25 27.9375 L 75.835938 27.9375 L 75.835938 60.496094 C 75.835938 66.653503 75.463541 70.697713 74.839844 72.417969 C 73.942478 74.866137 72.591608 76.685476 70.775391 77.923828 C 68.95682 79.165396 66.744952 79.792969 64.089844 79.792969 C 61.435346 79.792969 59.248013 79.157045 57.470703 77.898438 C 55.68847 76.636668 54.397098 74.878273 53.582031 72.574219 C 52.782788 70.312536 52.34375 66.068557 52.34375 59.955078 L 52.34375 27.9375 L 34.75 27.9375 z " /></svg>

<svg xmlns="http://www.w3.org/2000/svg" xmlns:xlink="http://www.w3.org/1999/xlink" xml:space="preserve" width="128" height="128" style="display:inline" viewBox="0 0 128 128"><title>Adwaita Icon Template</title><defs><linearGradient id="a"><stop offset="0" style="stop-color:#0b3543;stop-opacity:1"/><stop offset=".042" style="stop-color:#5e8596;stop-opacity:1"/><stop offset=".083" style="stop-color:#0b3543;stop-opacity:1"/><stop offset=".917" style="stop-color:#0b3543;stop-opacity:1"/><stop offset=".958" style="stop-color:#5f8496;stop-opacity:1"/><stop offset="1" style="stop-color:#0b3543;stop-opacity:1"/></linearGradient><linearGradient xlink:href="#a" id="d" x1="48" x2="464" y1="44" y2="44" gradientTransform="matrix(.25 0 0 .25 0 53)" gradientUnits="userSpaceOnUse"/><linearGradient xlink:href="#b" id="e" x1="59.044" x2="67.879" y1="17.542" y2="128" gradientUnits="userSpaceOnUse"/><linearGradient id="b" x1="187.473" x2="213.536" y1="23.267" y2="479.369" gradientUnits="userSpaceOnUse"><stop offset="0" style="stop-color:#4a6876"/><stop offset=".539" style="stop-color:#0b3543"/><stop offset="1" style="stop-color:#000"/></linearGradient><radialGradient id="c" cx="197.543" cy="205.882" r="123.405" gradientTransform="translate(13.97 9.859)scale(.25326)" gradientUnits="userSpaceOnUse"><stop offset=".006" style="stop-color:#fffeee"/><stop offset=".351" style="stop-color:#edede7"/><stop offset=".747" style="stop-color:#d6d9de"/><stop offset=".876" style="stop-color:#ddd8d4"/></radialGradient><radialGradient xlink:href="#c" id="f" cx="64" cy="62" r="29.25" fx="64" fy="62" gradientTransform="matrix(1.1193 0 0 1.02564 -7.635 -1.59)" gradientUnits="userSpaceOnUse"/></defs><rect width="104" height="84" x="12" y="32" rx="8" ry="8" style="display:inline;fill:url(#d);fill-opacity:1;stroke:none;stroke-width:.25;stroke-linecap:butt;stroke-linejoin:miter;stroke-miterlimit:4;stroke-dasharray:none;stroke-dashoffset:0;stroke-opacity:1;marker:none;marker-start:none;marker-mid:none;marker-end:none;paint-order:normal"/><rect width="104" height="100" x="12" y="12" rx="8" ry="8" style="display:inline;fill:url(#e);fill-opacity:1;stroke:none;stroke-width:.25;stroke-linecap:butt;stroke-linejoin:miter;stroke-miterlimit:4;stroke-dasharray:none;stroke-dashoffset:0;stroke-opacity:1;marker:none;marker-start:none;marker-mid:none;marker-end:none;paint-order:normal"/><path d="M34.75 27.938v27.748c0 10.486.627 17.716 1.95 21.808 1.831 5.818 5.017 10.392 9.534 13.662 4.535 3.284 10.453 4.906 17.705 4.906 6.685 0 12.241-1.39 16.63-4.199 4.376-2.801 7.693-6.83 9.933-12.04C92.37 75.46 93.25 67.62 93.25 56.165V27.938H75.836v32.558c0 6.158-.372 10.202-.996 11.922-.898 2.448-2.248 4.267-4.065 5.506-1.818 1.241-4.03 1.869-6.685 1.869s-4.842-.636-6.62-1.895c-1.782-1.261-3.073-3.02-3.888-5.324-.8-2.261-1.238-6.505-1.238-12.619V27.938z" style="baseline-shift:baseline;display:inline;overflow:visible;vector-effect:none;stop-color:#000;fill:url(#f)"/></svg>
